img/mobile-images/icon_vk-active.svg

<svg width="23" height="16" viewBox="0 0 23 16" fill="none" xmlns="http://www.w3.org/2000/svg">
<path d="M0.0700912 3.99266C0.0700912 3.37082 0.493211 3.03552 1.33945 2.98675L4.60039 3.00503C4.81925 3.00503 4.96515 3.09648 5.03811 3.27938C5.37368 4.19385 5.74938 4.98334 6.16521 5.64785C6.58103 6.31237 7.12453 7.07747 7.79568 7.94317C7.85404 8.05291 7.94888 8.10778 8.08019 8.10778C8.18233 8.10778 8.26257 8.0651 8.32093 7.97975L8.38659 7.77857L8.40848 4.6145C8.40848 4.39503 8.34647 4.24871 8.22245 4.17556C8.09843 4.1024 7.86863 4.04753 7.53305 4.01095C7.27043 3.97437 7.13912 3.84025 7.13912 3.60859C7.13912 3.55981 7.14641 3.52323 7.161 3.49885C7.4674 2.70631 8.34282 2.31004 9.78726 2.31004L11.0129 2.29175C11.5673 2.29175 12.0269 2.40758 12.3916 2.63925C12.7564 2.87091 12.9388 3.2367 12.9388 3.73661V7.88831C13.0409 7.94927 13.1357 7.97975 13.2233 7.97975C13.4421 7.97975 13.6318 7.87002 13.7923 7.65054C15.3973 5.77283 16.2654 4.51696 16.3967 3.88293C16.3967 3.87073 16.4113 3.84025 16.4405 3.79148C16.5426 3.60859 16.7104 3.45008 16.9438 3.31595C17.1773 3.18183 17.3815 3.09039 17.5566 3.04161C17.615 3.01723 17.6806 3.00503 17.7536 3.00503H21.1459L21.3647 3.02332C21.6565 3.02332 21.8827 3.13916 22.0432 3.37082C22.1015 3.44398 22.1416 3.52323 22.1635 3.60859C22.1854 3.69394 22.2 3.77929 22.2073 3.86464C22.2146 3.94999 22.2182 3.99876 22.2182 4.01095V4.13898C22.1161 4.63889 21.8571 5.17233 21.4413 5.7393C21.0255 6.30627 20.4966 6.91897 19.8546 7.57739C19.2126 8.2358 18.8114 8.66865 18.6509 8.87593C18.5196 9.02225 18.4539 9.15637 18.4539 9.2783C18.4539 9.37584 18.5123 9.48558 18.629 9.60751L21.8243 12.9728C21.9994 13.1678 22.0869 13.3812 22.0869 13.6129C22.0869 13.8933 21.9556 14.125 21.693 14.3079C21.4304 14.4908 21.1167 14.5944 20.7519 14.6188L20.3799 14.6371H17.0533C17.0387 14.6371 17.0095 14.6401 16.9657 14.6462C16.9219 14.6523 16.8928 14.6554 16.8782 14.6554C16.5572 14.6554 16.2581 14.5396 15.9809 14.3079C15.8787 14.2103 15.193 13.491 13.9236 12.1497C13.8507 12.0644 13.7485 11.9851 13.6172 11.912C13.5589 12.1071 13.4823 12.3875 13.3874 12.7533C13.2926 13.1191 13.2233 13.3812 13.1795 13.5397L13.1139 13.8507C12.968 14.2774 12.6616 14.5335 12.1947 14.6188L11.8883 14.6371H9.74349C8.53249 14.6371 7.32514 14.1738 6.12144 13.2471C4.91773 12.3204 3.8344 11.1225 2.87144 9.65323C1.90848 8.18398 1.01117 6.47392 0.179519 4.52306C0.106567 4.36455 0.0700912 4.18775 0.0700912 3.99266ZM13.2233 8.72962C12.9169 8.72962 12.6397 8.65951 12.3916 8.51929C12.1436 8.37907 12.0196 8.18703 12.0196 7.94317V3.73661C12.0196 3.49275 11.9466 3.319 11.8007 3.21536C11.6548 3.11172 11.3995 3.0599 11.0347 3.0599L9.78726 3.09648C9.15988 3.09648 8.68569 3.18793 8.3647 3.37082C9.00668 3.62687 9.32767 4.04143 9.32767 4.6145V7.83344C9.29849 8.13826 9.15258 8.39126 8.88996 8.59245C8.62733 8.79363 8.33552 8.89422 8.01454 8.89422C7.57683 8.89422 7.24125 8.71742 7.0078 8.36383C5.86975 6.92506 5.02351 5.55945 4.46908 4.267L4.27211 3.79148L1.36134 3.77319C1.17166 3.77319 1.06588 3.78233 1.044 3.80062C1.02211 3.81891 1.01117 3.87073 1.01117 3.95608C1.01117 4.06582 1.02576 4.18165 1.05494 4.30358L1.51454 5.32779C2.74013 7.97366 4.07149 10.0586 5.50864 11.5828C6.94579 13.1069 8.35741 13.8689 9.74349 13.8689H11.932C12.0196 13.8689 12.0852 13.8476 12.129 13.8049C12.1728 13.7623 12.2093 13.6799 12.2384 13.558L12.2822 13.3751L12.698 11.7657C12.8148 11.5462 12.9169 11.3999 13.0044 11.3267C13.1649 11.1926 13.3546 11.1255 13.5735 11.1255C13.9236 11.1255 14.2811 11.3023 14.6458 11.6559L16.5061 13.6312C16.6228 13.7897 16.7469 13.8689 16.8782 13.8689H20.4893C20.927 13.8689 21.1459 13.7775 21.1459 13.5946C21.1459 13.5336 21.124 13.4727 21.0802 13.4117L17.9068 10.1013C17.6588 9.84527 17.5347 9.57093 17.5347 9.2783C17.5347 8.98567 17.6515 8.70523 17.8849 8.43699C18.0746 8.19313 18.443 7.78771 18.9901 7.22074C19.5373 6.65377 20.0151 6.12338 20.4236 5.62956C20.8322 5.13575 21.1021 4.68766 21.2334 4.28529L21.299 4.04753C21.2845 4.02314 21.2772 3.98352 21.2772 3.92865C21.2772 3.87378 21.2699 3.82806 21.2553 3.79148H17.8193C17.6004 3.86464 17.4253 3.97437 17.294 4.12069L17.1627 4.46819C16.7979 5.3095 15.8423 6.60805 14.2957 8.36383C13.9893 8.60769 13.6318 8.72962 13.2233 8.72962Z" fill="#c9e0bb"/>
</svg>

<svg width="23" height="16" fill="none" xmlns="http://www.w3.org/2000/svg"><path d="M.07 3.993c0-.622.423-.957 1.27-1.006l3.26.018c.22 0 .365.091.438.274.336.915.711 1.704 1.127 2.369.416.664.96 1.43 1.63 2.295a.3.3 0 00.285.165.276.276 0 00.24-.128l.067-.201.021-3.165c0-.219-.062-.365-.186-.438-.124-.074-.353-.128-.689-.165-.263-.037-.394-.17-.394-.402a.21.21 0 01.022-.11c.306-.793 1.182-1.189 2.626-1.189l1.226-.018c.554 0 1.014.116 1.379.347.364.232.547.598.547 1.098v4.151a.562.562 0 00.284.092c.22 0 .409-.11.57-.33 1.604-1.877 2.472-3.133 2.604-3.767a.29.29 0 01.044-.092c.102-.182.27-.34.503-.475.233-.134.438-.226.613-.274a.507.507 0 01.197-.037h3.392l.219.018c.292 0 .518.116.678.348a.63.63 0 01.12.238c.022.085.037.17.044.256.008.085.011.134.011.146v.128c-.102.5-.36 1.033-.777 1.6-.415.567-.944 1.18-1.586 1.838-.642.659-1.044 1.092-1.204 1.299-.131.146-.197.28-.197.402 0 .098.058.208.175.33l3.195 3.365a.939.939 0 01.263.64c0 .28-.131.512-.394.695a1.826 1.826 0 01-.941.31l-.372.02h-3.327a.794.794 0 00-.087.008.802.802 0 01-.088.01c-.32 0-.62-.116-.897-.348-.102-.098-.788-.817-2.057-2.158a1.106 1.106 0 00-.307-.238c-.058.195-.135.475-.23.841a63.68 63.68 0 01-.207.787l-.066.31c-.146.427-.452.684-.92.769l-.306.018H9.743c-1.21 0-2.418-.463-3.622-1.39-1.203-.927-2.287-2.124-3.25-3.594-.963-1.469-1.86-3.18-2.691-5.13a1.254 1.254 0 01-.11-.53zM13.223 8.73a1.66 1.66 0 01-.831-.21c-.248-.14-.372-.333-.372-.577V3.737c0-.244-.073-.418-.22-.522-.145-.103-.4-.155-.765-.155l-1.248.036c-.627 0-1.101.092-1.422.275.642.256.963.67.963 1.243v3.22c-.03.304-.175.557-.438.758a1.405 1.405 0 01-.875.302c-.438 0-.774-.177-1.007-.53C5.87 6.925 5.024 5.559 4.469 4.267l-.197-.476-2.91-.018c-.19 0-.296.01-.318.028-.022.018-.033.07-.033.155 0 .11.015.226.044.348l.46 1.024c1.225 2.646 2.556 4.73 3.994 6.255 1.437 1.524 2.848 2.286 4.234 2.286h2.189c.088 0 .153-.021.197-.064.044-.043.08-.125.11-.247l.043-.183.416-1.61c.117-.219.219-.365.306-.438a.86.86 0 01.57-.201c.35 0 .707.176 1.072.53l1.86 1.975c.117.159.24.238.372.238h3.611c.438 0 .657-.091.657-.274a.312.312 0 00-.066-.183l-3.173-3.31c-.248-.257-.372-.531-.372-.824 0-.292.116-.573.35-.841.19-.244.558-.65 1.105-1.216a28.203 28.203 0 001.434-1.591c.408-.494.678-.942.81-1.345l.065-.237a.243.243 0 01-.022-.12c0-.054-.007-.1-.022-.137H17.82a1.199 1.199 0 00-.525.33l-.131.347c-.365.841-1.32 2.14-2.867 3.896a1.672 1.672 0 01-1.073.366z" fill="#c9e0bb"/></svg>
